Adwaita++-Light/panel/22/cisco-tray-reconnecting.svg

<svg height="22" width="22" xmlns="http://www.w3.org/2000/svg">
  <path d="m11 3c-2.990275 0-5.5819281 1.6269634-6.9550781 4.0449219 1.165789-.6620476 2.5133531-1.0449219 3.9550781-1.0449219.524759 0 1.0371571.052885 1.5332031.1484375.0018-.00466.0040594-.0090199.0058594-.0136719.109049-.2835808.2336859-.5574434.3730469-.8242187.0129-.024874.0259225-.0494978.0390625-.0742188.1278061-.238484.2674561-.4682357.4179691-.6914062.02988-.044688.05714-.0907249.08789-.1347657.151973-.215866.314284-.4236254.486328-.6230468.02804-.032693.053472-.0673834.082032-.0996094.204505-.229514.419107-.4495692.648437-.6542969-.222608-.018441-.446301-.0332031-.673828-.0332031zm3.226562.6777344c-.289386.1504875-.560133.3292648-.818359.5234375-.06417.047973-.123414.1018974-.185547.1523437-.214183.1751328-.419783.3614802-.607422.5644532-.02986.032021-.060683.0630301-.089843.0957031-.457517.5172888-.829449 1.1116662-1.089844 1.765625 1.881779.8932025 3.338777 2.5037584 4.060547 4.4746091.270909-.132717.559262-.231903.871094-.25h.003906c.08299-.0045.16701-.0045.25 0 .845029.0452 1.589435.55637 1.980468 1.292969l.203126.382813c.117744-.542373.195312-1.100349.195312-1.679688 0-3.2816681-1.958742-6.0857175-4.773438-7.3222656zm-6.226562 4.3222656c-2.079471 0-3.9066899 1.0464652-4.9824219 2.644531-.0052.118709-.0175781.235439-.0175781.355469 0 4.432 3.568 8 8 8 .119372 0 .235451-.012448.353516-.017578h.001953c.292006-.196563.558677-.426157.810547-.669922-.225065-.65705-.215061-1.406311.140625-2.076172l.296875-.558594c-.02017-.01364-.040237-.027425-.060547-.041015-.285849-.191584-.560432-.397127-.81836-.623047-.0031-.0027-.006565-.005113-.009765-.007813-.261357-.229614-.505115-.478562-.734375-.740234-.03115-.0355-.061267-.07137-.091797-.107422-.209976-.248385-.407211-.506126-.585938-.779297-.01292-.01971-.026322-.038763-.039062-.058594-.181167-.282329-.3412512-.57938-.4863282-.884765-.0279501-.05873-.0535282-.118216-.0800782-.177735-.131227-.294674-.2503191-.595729-.3457031-.908203-.0065-.02114-.0151944-.04128-.0214844-.0625-.09544-.322294-.164079-.655937-.21875-.99414-.01282-.07917-.0246662-.158327-.0351562-.238281-.0452888-.3456962-.0761719-.696205-.0761719-1.054688 0-.305652.0175413-.6059829.0507812-.9023438-.3415039-.0599379-.6915842-.0976562-1.0507812-.0976562zm3.013672.8125c-.002.06327-.013672.123738-.013672.1875 0 .248781.019648.4918529.048828.7324219.0089.07358.021693.146032.033203.21875.02793.1757201.0627.3493741.105469.5195311.01772.07068.034498.141289.054688.210938.065899.226739.141381.449467.232421.664062.0966.2277.209115.446117.332032.658203.01642.02842.033911.055865.050781.083985.115562.192026.241224.377564.376953.554687.01328.01738.025593.035514.039063.052734.306563.391105.659422.742732 1.052734 1.046876.01616.01252.032538.024749.048828.037109.05528.04185.117081.07511.173828.115234l.392578-.736328c-.260189-1.86196-1.370842-3.4423412-2.927734-4.345703zm5.412109 3.189453a1.4077754 1.5301004 0 0 0 -1.144531.763672l-1.046875 1.96875-1.044922 1.970703a1.4077754 1.5301004 0 0 0 1.216797 2.294922h2.09375 2.091797a1.4077754 1.5301004 0 0 0 1.21875-2.294922l-1.046875-1.970703-1.044922-1.96875a1.4077754 1.5301004 0 0 0 -1.152344-.763672 1.4077754 1.5301004 0 0 0 -.140625 0zm-.425781.998047h1v3h-1zm0 4h1v1h-1z" fill="#444"/>
</svg>

<svg xmlns="http://www.w3.org/2000/svg" width="22" height="22" version="1.1">
 <defs>
  <style id="current-color-scheme" type="text/css">
   .ColorScheme-Text { color:#444444; } .ColorScheme-Highlight { color:#4285f4; }
  </style>
 </defs>
 <path style="fill:currentColor" class="ColorScheme-Text" d="M 11 3 C 8.009725 3 5.4180719 4.6269634 4.0449219 7.0449219 C 5.2107109 6.3828743 6.558275 6 8 6 C 8.524759 6 9.0371571 6.052885 9.5332031 6.1484375 C 9.5350031 6.1437775 9.5372625 6.1394176 9.5390625 6.1347656 C 9.6481115 5.8511848 9.7727484 5.5773222 9.9121094 5.3105469 C 9.9250094 5.2856729 9.9380319 5.2610491 9.9511719 5.2363281 C 10.078978 4.9978441 10.218628 4.7680924 10.369141 4.5449219 C 10.399021 4.5002339 10.426281 4.454197 10.457031 4.4101562 C 10.609004 4.1942902 10.771315 3.9865308 10.943359 3.7871094 C 10.971399 3.7544164 10.996831 3.719726 11.025391 3.6875 C 11.229896 3.457986 11.444498 3.2379308 11.673828 3.0332031 C 11.45122 3.0147621 11.227527 3 11 3 z M 14.226562 3.6777344 C 13.937176 3.8282219 13.666429 4.0069992 13.408203 4.2011719 C 13.344033 4.2491449 13.284789 4.3030693 13.222656 4.3535156 C 13.008473 4.5286484 12.802873 4.7149958 12.615234 4.9179688 C 12.585374 4.9499898 12.554551 4.9809989 12.525391 5.0136719 C 12.067874 5.5309607 11.695942 6.1253381 11.435547 6.7792969 C 13.317326 7.6724994 14.774324 9.2830553 15.496094 11.253906 C 15.767003 11.121189 16.055356 11.022003 16.367188 11.003906 L 16.371094 11.003906 C 16.454084 10.999406 16.538104 10.999406 16.621094 11.003906 C 17.466123 11.049106 18.210529 11.560276 18.601562 12.296875 L 18.804688 12.679688 C 18.922432 12.137315 19 11.579339 19 11 C 19 7.7183319 17.041258 4.9142825 14.226562 3.6777344 z M 8 8 C 5.920529 8 4.0933101 9.0464652 3.0175781 10.644531 C 3.0123781 10.76324 3 10.87997 3 11 C 3 15.432 6.568 19 11 19 C 11.119372 19 11.235451 18.987552 11.353516 18.982422 L 11.355469 18.982422 C 11.647475 18.785859 11.914146 18.556265 12.166016 18.3125 C 11.940951 17.65545 11.950955 16.906189 12.306641 16.236328 L 12.603516 15.677734 C 12.583346 15.664094 12.563279 15.650309 12.542969 15.636719 C 12.25712 15.445135 11.982537 15.239592 11.724609 15.013672 C 11.721509 15.010972 11.718044 15.008559 11.714844 15.005859 C 11.453487 14.776245 11.209729 14.527297 10.980469 14.265625 C 10.949319 14.230125 10.919202 14.194255 10.888672 14.158203 C 10.678696 13.909818 10.481461 13.652077 10.302734 13.378906 C 10.289814 13.359196 10.276412 13.340143 10.263672 13.320312 C 10.082505 13.037983 9.9224208 12.740932 9.7773438 12.435547 C 9.7493937 12.376817 9.7238156 12.317331 9.6972656 12.257812 C 9.5660386 11.963138 9.4469465 11.662083 9.3515625 11.349609 C 9.3450625 11.328469 9.3363681 11.308329 9.3300781 11.287109 C 9.2346381 10.964815 9.1659991 10.631172 9.1113281 10.292969 C 9.0985081 10.213799 9.0866619 10.134642 9.0761719 10.054688 C 9.0308831 9.7089918 9 9.358483 9 9 C 9 8.694348 9.0175413 8.3940171 9.0507812 8.0976562 C 8.7092773 8.0377183 8.359197 8 8 8 z M 11.013672 8.8125 C 11.011672 8.87577 11 8.936238 11 9 C 11 9.248781 11.019648 9.4918529 11.048828 9.7324219 C 11.057728 9.8060019 11.070521 9.8784539 11.082031 9.9511719 C 11.109961 10.126892 11.144731 10.300546 11.1875 10.470703 C 11.20522 10.541383 11.221998 10.611992 11.242188 10.681641 C 11.308087 10.90838 11.383569 11.131108 11.474609 11.345703 C 11.571209 11.573403 11.683724 11.79182 11.806641 12.003906 C 11.823061 12.032326 11.840552 12.059771 11.857422 12.087891 C 11.972984 12.279917 12.098646 12.465455 12.234375 12.642578 C 12.247655 12.659958 12.259968 12.678092 12.273438 12.695312 C 12.580001 13.086417 12.93286 13.438044 13.326172 13.742188 C 13.342332 13.754708 13.35871 13.766937 13.375 13.779297 C 13.43028 13.821147 13.492081 13.854407 13.548828 13.894531 L 13.941406 13.158203 C 13.681217 11.296243 12.570564 9.7158618 11.013672 8.8125 z M 16.425781 12.001953 A 1.4077754 1.5301004 0 0 0 15.28125 12.765625 L 14.234375 14.734375 L 13.189453 16.705078 A 1.4077754 1.5301004 0 0 0 14.40625 19 L 16.5 19 L 18.591797 19 A 1.4077754 1.5301004 0 0 0 19.810547 16.705078 L 18.763672 14.734375 L 17.71875 12.765625 A 1.4077754 1.5301004 0 0 0 16.566406 12.001953 A 1.4077754 1.5301004 0 0 0 16.425781 12.001953 z M 16 13 L 17 13 L 17 16 L 16 16 L 16 13 z M 16 17 L 17 17 L 17 18 L 16 18 L 16 17 z"/>
</svg>
